public/img/competitive-pricing.svg

<svg width="50" height="41" viewBox="0 0 50 41" fill="none" xmlns="http://www.w3.org/2000/svg">
<path d="M25.625 0.625V2.57812C26.5625 2.65625 27.5 2.89062 28.4375 3.125C28.75 3.20312 28.9844 3.51562 28.8281 3.90625C28.75 4.21875 28.4375 4.45312 28.0469 4.29688C27.0312 4.0625 25.9375 3.82812 24.9219 3.75C24.0625 3.75 23.125 3.98438 22.3438 4.45312C21.6406 4.84375 21.25 5.54688 21.25 6.40625C21.25 7.1875 21.6406 7.73438 22.3438 8.20312C23.0469 8.67188 24.0625 8.98438 25.1562 9.29688C26.25 9.6875 27.4219 10 28.2812 10.625C29.2188 11.25 29.9219 12.1094 30 13.5156C30 15 29.2969 16.0156 28.2812 16.7188C27.5 17.1875 26.5625 17.5 25.625 17.5V19.4531C25.625 19.7656 25.3125 20.0781 25 20.0781C24.6094 20.0781 24.375 19.7656 24.375 19.4531V17.5C23.125 17.3438 22.0312 16.9531 21.0156 16.5625C20.7812 16.4844 20.5469 16.4062 20.3906 16.3281C20.0781 16.25 19.9219 15.8594 20 15.5469C20.1562 15.2344 20.4688 15.0781 20.7812 15.1562C21.0156 15.2344 21.25 15.3125 21.4062 15.3906C22.6562 15.8594 23.75 16.25 25 16.3281C25.9375 16.3281 26.875 16.0938 27.5781 15.625C28.2812 15.2344 28.75 14.5312 28.75 13.5156C28.6719 12.6562 28.2812 12.1094 27.5781 11.6406C26.875 11.1719 25.8594 10.8594 24.7656 10.5469L24.6875 10.4688C23.5938 10.1562 22.5 9.76562 21.6406 9.21875C20.7031 8.67188 20 7.8125 20 6.48438C20 5 20.7031 3.98438 21.7188 3.35938C22.5 2.89062 23.4375 2.65625 24.375 2.57812V0.625C24.375 0.3125 24.6094 0 25 0C25.3125 0 25.625 0.3125 25.625 0.625ZM7.5 8.75V20.2344C7.5 21.4062 7.8125 22.4219 8.51562 23.2812C8.59375 22.5781 8.82812 21.9531 9.375 21.3281C10.7031 19.8438 13.0469 19.6875 14.4531 21.1719L21.7188 28.4375C22.9688 29.6875 23.75 31.4062 23.75 33.2031V39.375C23.75 39.7656 23.4375 40 23.125 40C22.7344 40 22.5 39.7656 22.5 39.375V33.2031C22.5 31.7188 21.875 30.3125 20.8594 29.2969L13.5938 22.0312C12.6562 21.0938 11.1719 21.1719 10.3125 22.1875C9.53125 23.0469 9.60938 24.375 10.3906 25.2344L14.7656 29.6094L15.3906 30.2344C15.625 30.4688 15.625 30.8594 15.3906 31.0938C15.1562 31.3281 14.7656 31.3281 14.5312 31.0938L13.9062 30.4688L9.53125 26.0938L7.96875 24.6094C6.875 23.4375 6.25 21.875 6.25 20.2344V8.75C6.25 7.42188 5.07812 6.25 3.75 6.25C2.34375 6.25 1.25 7.42188 1.25 8.75V26.9531C1.25 28.75 1.95312 30.4688 3.20312 31.7969L10.3906 38.9844C10.625 39.2188 10.625 39.6094 10.3906 39.8438C10.1562 40.0781 9.76562 40.0781 9.53125 39.8438L2.34375 32.6562C0.859375 31.1719 0 29.0625 0 26.9531V8.75C0 6.71875 1.64062 5 3.75 5C5.78125 5 7.5 6.71875 7.5 8.75ZM46.25 5C48.2812 5 50 6.71875 50 8.75V26.9531C50 29.0625 49.1406 31.1719 47.5781 32.6562L40.3906 39.8438C40.1562 40.0781 39.7656 40.0781 39.5312 39.8438C39.2969 39.6094 39.2969 39.2188 39.5312 38.9844L46.7188 31.7969C47.9688 30.4688 48.75 28.75 48.75 26.9531V8.75C48.75 7.42188 47.5781 6.25 46.25 6.25C44.8438 6.25 43.75 7.42188 43.75 8.75V20.2344C43.75 21.875 43.0469 23.4375 41.9531 24.6094L40.3906 26.0938L36.0156 30.4688L35.3906 31.0938C35.1562 31.3281 34.7656 31.3281 34.5312 31.0938C34.2969 30.8594 34.2969 30.4688 34.5312 30.2344L35.1562 29.6094L39.5312 25.2344C40.3906 24.375 40.3906 23.0469 39.6094 22.1875C38.8281 21.1719 37.2656 21.0938 36.3281 22.0312L29.0625 29.2969C28.0469 30.3125 27.5 31.7188 27.5 33.2031V39.375C27.5 39.7656 27.1875 40 26.875 40C26.4844 40 26.25 39.7656 26.25 39.375V33.2031C26.25 31.4062 26.9531 29.6875 28.2031 28.4375L35.4688 21.1719C36.875 19.6875 39.2188 19.8438 40.5469 21.3281C41.0938 21.9531 41.3281 22.5781 41.4062 23.2812C42.1094 22.4219 42.5 21.4062 42.5 20.2344V8.75C42.5 6.71875 44.1406 5 46.25 5Z" fill="#1A75BB"/>
</svg>

<svg xmlns="http://www.w3.org/2000/svg" width="50" height="41" fill="none"><path fill="#1A75BB" d="M25.625.625v1.953c.938.078 1.875.313 2.813.547.312.078.546.39.39.781-.078.313-.39.547-.781.39-1.016-.234-2.11-.468-3.125-.546-.86 0-1.797.234-2.578.703-.703.39-1.094 1.094-1.094 1.953 0 .782.39 1.328 1.094 1.797.703.469 1.718.781 2.812 1.094 1.094.39 2.266.703 3.125 1.328.938.625 1.64 1.484 1.719 2.89 0 1.485-.703 2.5-1.719 3.204-.781.468-1.718.781-2.656.781v1.953c0 .313-.312.625-.625.625a.616.616 0 0 1-.625-.625V17.5c-1.25-.156-2.344-.547-3.36-.937a5 5 0 0 1-.624-.235c-.313-.078-.47-.469-.391-.781.156-.313.469-.469.781-.39.235.077.469.155.625.234 1.25.468 2.344.859 3.594.937.938 0 1.875-.234 2.578-.703.703-.39 1.172-1.094 1.172-2.11-.078-.859-.469-1.406-1.172-1.874-.703-.47-1.719-.782-2.812-1.094l-.078-.078c-1.094-.313-2.188-.703-3.047-1.25C20.703 8.672 20 7.813 20 6.484c0-1.484.703-2.5 1.719-3.125.781-.468 1.718-.703 2.656-.78V.624c0-.312.234-.625.625-.625.313 0 .625.313.625.625M7.5 8.75v11.484c0 1.172.313 2.188 1.016 3.047a3.38 3.38 0 0 1 .859-1.953c1.328-1.484 3.672-1.64 5.078-.156l7.266 7.265c1.25 1.25 2.031 2.97 2.031 4.766v6.172c0 .39-.312.625-.625.625-.39 0-.625-.234-.625-.625v-6.172c0-1.484-.625-2.89-1.64-3.906l-7.266-7.266c-.938-.937-2.422-.86-3.281.157-.782.859-.704 2.187.078 3.046l4.375 4.375.625.625a.613.613 0 0 1 0 .86.613.613 0 0 1-.86 0l-.625-.625-4.375-4.375-1.562-1.485a6.42 6.42 0 0 1-1.719-4.375V8.75c0-1.328-1.172-2.5-2.5-2.5-1.406 0-2.5 1.172-2.5 2.5v18.203c0 1.797.703 3.516 1.953 4.844l7.188 7.187a.613.613 0 0 1 0 .86.613.613 0 0 1-.86 0l-7.187-7.188C.859 31.172 0 29.063 0 26.953V8.75A3.75 3.75 0 0 1 3.75 5C5.781 5 7.5 6.719 7.5 8.75M46.25 5C48.281 5 50 6.719 50 8.75v18.203c0 2.11-.86 4.219-2.422 5.703l-7.187 7.188a.613.613 0 0 1-.86 0 .613.613 0 0 1 0-.86l7.188-7.187c1.25-1.328 2.031-3.047 2.031-4.844V8.75c0-1.328-1.172-2.5-2.5-2.5-1.406 0-2.5 1.172-2.5 2.5v11.484c0 1.641-.703 3.203-1.797 4.375l-1.562 1.485-4.375 4.375-.625.625a.613.613 0 0 1-.86 0 .613.613 0 0 1 0-.86l.625-.625 4.375-4.375c.86-.859.86-2.187.078-3.047-.78-1.015-2.343-1.093-3.28-.156l-7.267 7.266c-1.015 1.015-1.562 2.422-1.562 3.906v6.172c0 .39-.312.625-.625.625-.39 0-.625-.234-.625-.625v-6.172c0-1.797.703-3.516 1.953-4.766l7.266-7.265c1.406-1.485 3.75-1.328 5.078.156.547.625.781 1.25.86 1.953a4.7 4.7 0 0 0 1.093-3.047V8.75A3.75 3.75 0 0 1 46.25 5"/></svg>
